X:1
T:Alida, CMD
T:Alida, CMD
T:D. B. Thompson, 1889
T:Public Domain Courtesy of the Cyber Hymnal™
C:D. B. Thompson, 1889
Z:Public Domain
Z:Courtesy of the Cyber Hymnal™
%%score ( 1 2 ) ( 3 4 )
L:1/8
Q:1/4=150
M:6/4
K:C
V:1 treble 
V:2 treble 
V:3 bass 
V:4 bass 
V:1
 [EG]2 | [Ec]4 [Ec]2 ([Ge]2 [Fd]2) [Gc]2 | [FA]4 [FA]2 [Ac]2 [GB]2 [FA]2 | %3
 [EG]4 [EG]2 (G2 c2) [Ge]2 | [Gd]6- [Gd]4 [EG]2 | [Ec]4 [Ec]2 ([Ge]2 [Fd]2) [Gc]2 | %6
 [FA]4 [FA]2 ([Ac]2 [GB]2) [FA]2 | (G2 c2) [Ge]2 [FA]4 [FB]2 | [Ec]6- [Ec]4 [Ec]2 | %9
 [Fd]4 [Fd]2 (B2 A2) [FG]2 | [Ec]4 [Fc]2 [Ec]4 [Ec]2 | [Fd]4 [Fd]2 (B2 A2) [FG]2 | %12
 [Ec]6- [Ec]4 [EG]2 | [Ec]4 [Ec]2 ([Ge]2 [Fd]2) [Gc]2 | [FA]4 [FA]2 ([Ac]2 [GB]2) [FA]2 | %15
 (G2 c2) [Ge]2 [FA]4 [FB]2 | [Ec]6- [Ec]4 |] %17
V:2
 x2 | x12 | x12 | x6 E4 x2 | x12 | x12 | x12 | E4 x8 | x12 | x6 F4 x2 | x12 | x6 F4 x2 | x12 | %13
 x12 | x12 | E4 x8 | x10 |] %17
V:3
 [C,G,]2 | [C,G,]4 [C,G,]2 ([C,C]2 [D,B,]2) [E,C]2 | [F,C]4 [F,C]2 [F,C]4 [F,C]2 | %3
 [C,C]4 [C,C]2 (C2 G,2) [C,C]2 | [G,,B,]6- [G,,B,]4 [C,G,]2 | %5
 [C,G,]4 [C,G,]2 ([C,C]2 [D,B,]2) [E,C]2 | [F,C]4 [F,C]2 [F,C]4 [F,C]2 | C4 [C,C]2 [F,C]4 G,2 | %8
 [C,G,]6- [C,G,]4 [C,C]2 | [G,B,]4 [G,B,]2 (D2 C2) [G,B,]2 | [C,C]4 [C,A,]2 [C,G,]4 [C,C]2 | %11
 [G,B,]4 [G,B,]2 (D2 C2) [G,B,]2 | [C,C]6- [C,C]4 [C,G,]2 | %13
 [C,G,]4 [C,G,]2 ([C,C]2 [D,B,]2) [E,C]2 | [F,C]4 [F,C]2 [F,C]4 [F,C]2 | C4 [C,C]2 [F,C]4 G,2 | %16
 [C,G,]6- [C,G,]4 |] %17
V:4
 x2 | x12 | x12 | x6 C,4 x2 | x12 | x12 | x12 | (G,2 E,2) x4 G,2 x2 | x12 | x6 G,4 x2 | x12 | %11
 x6 G,4 x2 | x12 | x12 | x12 | (G,2 E,2) x4 G,2 x2 | x10 |] %17

